molecule-co.svg

<svg  viewBox="0 0 24 24" fill="currentColor"><path  d="M8 7C6.9 7 6 7.9 6 9V15C6 16.11 6.9 17 8 17H11V15H8V9H11V7H8M14 7C12.9 7 12 7.9 12 9V15C12 16.11 12.9 17 14 17H16C17.11 17 18 16.11 18 15V9C18 7.9 17.11 7 16 7H14M14 9H16V15H14V9"/></svg>

<svg fill="currentColor" viewBox="0 0 24 24"><path d="M8 7c-1.1 0-2 .9-2 2v6a2 2 0 0 0 2 2h3v-2H8V9h3V7zm6 0c-1.1 0-2 .9-2 2v6a2 2 0 0 0 2 2h2c1.11 0 2-.89 2-2V9a2 2 0 0 0-2-2zm0 2h2v6h-2z"/></svg>
